icon-themes/sifr_svg/cmd/sc_gotopage.svg

<svg viewBox="0 0 16 16" xmlns="http://www.w3.org/2000/svg"><path d="m2 1v14h4v-2h-2v-10h8v3h2v-5zm11 6v2a1 1 0 0 1 1 1 1 1 0 0 1 -1 1h-2.822266l.509766-.28125c.18267-.19029.3125-.46186.3125-.71875v-1h-.414062-.585938c-.275129 0-.55232.0903-.75.28125-1.083467.820629-1.166535.930538-2.25 1.888672v1.705078l2.25 1.84375c.19768.19096.44055.28125.75.28125h.585938.414062v-1c-.0051-.256839-.12983-.52846-.3125-.71875l-.509766-.28125h2.822266a3 3 0 0 0 3-3 3 3 0 0 0 -3-3z" fill="#555753"/></svg>

<svg xmlns="http://www.w3.org/2000/svg" viewBox="0 0 16 16">
  <path
     style="fill:#555753"
     d="M 2 1 L 2 15 L 6 15 L 6 13 L 4 13 L 4 3 L 12 3 L 12 6 L 14 6 L 14 1 L 2 1 z M 13 7 L 13 9 A 1 1 0 0 1 14 10 A 1 1 0 0 1 13 11 L 10.177734 11 L 10.6875 10.71875 C 10.87017 10.52846 11 10.25689 11 10 L 11 9 L 10.585938 9 L 10 9 C 9.724871 9 9.44768 9.0903 9.25 9.28125 C 8.166533 10.101879 8.083465 10.211788 7 11.169922 L 7 12.875 L 9.25 14.71875 C 9.44768 14.90971 9.69055 15 10 15 L 10.585938 15 L 11 15 L 11 14 C 10.9949 13.743161 10.87017 13.47154 10.6875 13.28125 L 10.177734 13 L 13 13 A 3 3 0 0 0 16 10 A 3 3 0 0 0 13 7 z "
     />
</svg>
